X: 4
T: Old Chestnuts
M: 6/8
L: 1/8
R: jig
K: Emin
N: ocataves version, no notes, basic tone or length, have been changed! 
|: d |\ 
e2 b bab | e2 b bab | d2 b bag | fga agf |
e2 b bab | e2 b bab | d2 b bag | fgf e2 :|
|: B |\
E2 B, G2 B, | DB,A, A,B,D | E2 B, G2 B, | A,G,A, B,2 E |
BAF G2 B, | C2 G ECA, | EG,B, E2 B, } G,A,F E2 :|
|: B |\
E2 G BAG | F2 G AGF | EB,E GEG | AGA B2 G |
B3 G3 | EGE ^A,3 | B,EG BAG | FGF E2 :|
